X: 40573
T: Tommy Tully's
R: waltz
M: 3/4
K: Gmajor
|:D2 DE GA|B2 BG cB|BA A4|D2 DE FG|
A2 AB cd|B4 B2|D2 DE GA|B2 BG cB|
BA A4|D2 DE FG|A2 AB GF|G4 D2:|
|:B2 BD AD|G2 GD FG|FE E4|E4 E2|
c2 cE BD|A2 AF GA|D4 D2|D4 D2|d2 dB cA|
B2 BF GA|FE E3c|D2 DE FG|A2 AB GF|G4 G2:|

